**kern	**kern	**kern	**kern	**harm
*staff4	*staff3	*staff2	*staff1	*staff1
=1-	=1-	=1-	=1-	=1-
*clefF4	*clefG2	*clefG2	*clefG2	*
*k[f#c#g#d#a#e#b#]	*k[f#c#g#d#a#e#b#]	*k[f#c#g#d#a#e#b#]	*k[f#c#g#d#a#e#b#]	*
*M3/4	*M3/4	*M3/4	*M3/4	*
*	*	*	*MM80	*
*C#:	*C#:	*C#:	*C#:	*C#:
2c#\	[2.g#/	2e#/	4cc#/	I
.	.	.	4ee#\	.
4c#\	.	4ee#\	4gg#\	.
=2	=2	=2	=2	=2
2B#\	2.g#/]	2dd#/	8gg#\L	V65
.	.	.	8ff#\J	.
.	.	.	8dd#\L	.
.	.	.	8ff#\J	.
4c#\	.	4ee#\	4ee#\	I
=3	=3	=3	=3	=3
2f#\	4r	4cc#/	4aa#\	IV
.	[4.gg#\	4dd#/	4bb#\	V42
4e#\	.	4cc#/	8.ccc#\L	I6
.	16gg#\LL]	.	.	.
.	16cc#\JJ	.	16ee#\Jk	.
=4	=4	=4	=4	=4
!!linebreak:original
4B#\	4dd#/	4g#/	8gg#\L	V65
.	.	.	8ff#\J	.
4c#\	4cc#/	4g#/	4ee#\	I
4r	4r	4r	4r	.
=5	=5	=5	=5	=5
4f#\	4a#/	2a#/	4dd#/	IV
4d#\	4f#/	.	4ff#\	ii
4c#\	8.e#/L	4ee#\	4aa#\	vi
.	16f#/Jk	.	.	.
=6	=6	=6	=6	=6
4B#\	4g#/	4dd#/	4gg#\	V7
4G#\	4dd#/	4b#/	4ff#\	.
8A#/L	4cc#/	8cc#\L	8ee#\L	vi
8E#/J	.	8gg#\J	8ccc#\J	I6
=7	=7	=7	=7	=7
4F#/	4cc#/	16gg#\LL	16bb#\LL	IV
.	.	16ff#\	16aa#\	.
.	.	16ee#\	16gg#\	.
.	.	16dd#\JJ	16ff#\JJ	.
4G#\	4g#/	4cc#/	4ee#\	C64
4G#\	4g#/	16ee#/LL	16gg#\LL	V7
.	.	16dd#/	16ff#\	.
.	.	16cc#/	16ee#\	.
.	.	16b#/JJ	16dd#\JJ	.
=8	=8	=8	=8	=8
4.c#\	4g#/	4b#/	4dd#/	I
.	4r	4cc#'/	4ee#'\	.
8c#\	.	.	.	.
8G#/L	4r	4r	4r	.
8E#/J	.	.	.	.
=9	=9	=9	=9	=9
*	*clefF4	*	*	*
2C#/	2.e#\	[2.g#/	4c#/	I
.	.	.	4e#/	.
4C#/	.	.	4g#/	.
=10	=10	=10	=10	=10
!!linebreak:original
2BB#/	2d#\	2.g#/]	8g#/L	V65
.	.	.	8f#/J	.
.	.	.	8d#/L	.
.	.	.	8f#/J	.
4C#/	4e#\	.	4e#/	I
=11	=11	=11	=11	=11
2F#/	4c#\	4r	4a#/	IV
*	*	*clefF4	*	*
.	4d#\	[4.g#\	4b#/	V42
4E#/	4c#\	.	16.cc#/LL	I6
.	.	.	32dd#/K	.
.	.	16g#\LL]	16.ee#/	.
.	.	16c#\JJ	.	.
.	.	.	32e#/JJk	.
=12	=12	=12	=12	=12
4BB#/	4G#\	4d#\	8g#/L	V6
.	.	.	8f#/J	.
4C#/	4G#\	4c#\	4e#/	I
4r	4r	4r	4r	.
=13	=13	=13	=13	=13
*	*clefG2	*clefG2	*	*
*G#:	*G#:	*G#:	*G#:	*G#:
16r	[2.gg#\	2.ccc#\	2.eee#\	IV
16B#\LL	.	.	.	.
16c#\	.	.	.	.
16G#\JJ	.	.	.	.
16F#/LL	.	.	.	.
16E#/	.	.	.	.
16D#/	.	.	.	.
16C#/JJ	.	.	.	.
16BB#/LL	.	.	.	.
16C#/	.	.	.	.
16D#/	.	.	.	.
16C#/JJ	.	.	.	.
=14	=14	=14	=14	=14
!!pagebreak:original
16r	2.gg#\]	2.bb#\	2.ddd#\	I
16f##\LL	.	.	.	.
16g#\	.	.	.	.
16d#\JJ	.	.	.	.
16c#\LL	.	.	.	.
16B#\	.	.	.	.
16A#\	.	.	.	.
16G#\JJ	.	.	.	.
16F##\LL	.	.	.	.
16G#\	.	.	.	.
16A#\	.	.	.	.
16G#\JJ	.	.	.	.
=15	=15	=15	=15	=15
16r	[2.dd#/	2.aa#\	2.ccc#\	V7
16c##\LL	.	.	.	.
16d#\	.	.	.	.
16A#\JJ	.	.	.	.
16G#/LL	.	.	.	.
16F##/	.	.	.	.
16E#/	.	.	.	.
16D#/JJ	.	.	.	.
16C##/LL	.	.	.	.
16D#/	.	.	.	.
16E#/	.	.	.	.
16D#/JJ	.	.	.	.
=16	=16	=16	=16	=16
16r	2.dd#/]	2.gg#\	2.bb#\	I
16f##\LL	.	.	.	.
16g#\	.	.	.	.
16d#\JJ	.	.	.	.
16c#\LL	.	.	.	.
16B#\	.	.	.	.
16A#\	.	.	.	.
16G#\JJ	.	.	.	.
16F##\LL	.	.	.	.
16G#\	.	.	.	.
16A#\	.	.	.	.
16G#\JJ	.	.	.	.
=17	=17	=17	=17	=17
!!linebreak:original
16r	4cc#/	2.ee#\	4aa#\	ii
16B#\LL	.	.	.	.
16c#\	.	.	.	.
16G##\JJ	.	.	.	.
16A#/LL	2ee#\	.	4.ccc#\	.
16AA#/	.	.	.	.
16C#/	.	.	.	.
16E#/JJ	.	.	.	.
16A#\LL	.	.	.	.
16B#\	.	.	.	.
16c#\	.	.	8aa#\	V6/V
16c##\JJ	.	.	.	.
=18	=18	=18	=18	=18
16r	2dd#/	2a#/	4gg#\	V
16c##\LL	.	.	.	.
16d#\	.	.	.	.
16A#\JJ	.	.	.	.
16G#/LL	.	.	4ff##\	.
16F##/	.	.	.	.
16E#/	.	.	.	.
16D#/JJ	.	.	.	.
16C##/LL	4r	4r	4r	.
16D#/	.	.	.	.
16E#/	.	.	.	.
16D#/JJ	.	.	.	.
=19	=19	=19	=19	=19
!!linebreak:original
16d#\LL	4r	[2.dd#/	4dd#/	V
16f##\	.	.	.	.
16a#\	.	.	.	.
16f##\JJ	.	.	.	.
*	*clefF4	*	*	*
16a#\LL	4F##/	.	4ccc#\	V65
16f##\	.	.	.	.
16a#\	.	.	.	.
16f##\JJ	.	.	.	.
16d#\LL	4G#\	.	4bb#\	I
16g#\	.	.	.	.
16b#\	.	.	.	.
16g#\JJ	.	.	.	.
=20	=20	=20	=20	=20
16d#\LL	4r	2.dd#/]	4dd#/	V7
16a#\	.	.	.	.
16cc#\	.	.	.	.
16a#\JJ	.	.	.	.
16cc#\LL	4d#\	.	4fff##\	.
16a#\	.	.	.	.
16cc#\	.	.	.	.
16a#\JJ	.	.	.	.
16d#\LL	4g#\	.	4ggg#\	I
16g#\	.	.	.	.
16b#\	.	.	.	.
16g#\JJ	.	.	.	.
=21	=21	=21	=21	=21
!!pagebreak:original
16d#\LL	4r	[2.dd#/	4dd#/	V
16f##\	.	.	.	.
16a#\	.	.	.	.
16f##\JJ	.	.	.	.
16a#\LL	4F##/	.	4ccc#\	V65
16f##\	.	.	.	.
16a#\	.	.	.	.
16f##\JJ	.	.	.	.
16d#\LL	4G#\	.	4bb#\	I
16g#\	.	.	.	.
16b#\	.	.	.	.
16g#\JJ	.	.	.	.
=22	=22	=22	=22	=22
16d#\LL	4r	2.dd#/]	4dd#/	V7
16a#\	.	.	.	.
16cc#\	.	.	.	.
16a#\JJ	.	.	.	.
16cc#\LL	4d#\	.	4fff##\	.
16a#\	.	.	.	.
16cc#\	.	.	.	.
16a#\JJ	.	.	.	.
16d#\LL	4g#\	.	4ggg#\	I
16g#\	.	.	.	.
16b#\	.	.	.	.
16g#\JJ	.	.	.	.
=23	=23	=23	=23	=23
!!linebreak:original
4c#\	4c#\	8.ee#\L	16r	ii6
.	.	.	16ddd##\LL	.
.	.	.	16eee#\	.
.	.	16gg##\Jk	16bb#\JJ	.
4r	4r	4aa#\	16ccc#\LL	.
.	.	.	16gg##\	.
.	.	.	16aa#\	.
.	.	.	16ee#\JJ	.
4r	4r	4r	16dd#/LL	.
.	.	.	16cc#/	.
.	.	.	16b#/	.
.	.	.	16a#/JJ	.
=24	=24	=24	=24	=24
4B#\	4B#\	8.dd#\L	16r	I6
.	.	.	16ccc##\LL	.
.	.	.	16ddd#\	.
.	.	16ff##\Jk	16aa#\JJ	.
4r	4r	4gg#\	16bb#\LL	.
.	.	.	16ff##\	.
.	.	.	16gg#\	.
.	.	.	16fff##\JJ	.
4r	4r	4r	4ggg#'\	.
=25	=25	=25	=25	=25
4c#\	4r	4r	16r	IV
.	.	.	16d##/LL	.
.	.	.	16e#/	.
.	.	.	16ccc#/JJ	.
4d#\	4r	4r	4dd#/	V7
*	*clefG2	*	*	*
4D#/	4cc#/	4ff##\	8.aa#\L	.
.	.	.	32gg#\LL	.
.	.	.	32aa#\JJJ	.
=26	=26	=26	=26	=26
!!linebreak:original
2.E#/	2b#/	16gg#\LL	2ggg#\	vi
.	.	16aa#\	.	.
.	.	16bb#\	.	.
.	.	16ff##\JJ	.	.
.	.	16gg#/LL	.	.
.	.	16dd##/	.	.
.	.	16ee#/	.	.
.	.	16b#/JJ	.	.
.	4a#/	16cc##\LL	16fff##\LL	V43/V
.	.	16ee#\	16eee#\	.
.	.	16ff##\	16ddd#\	.
.	.	16gg#\JJ	16ccc##\JJ	.
=27	=27	=27	=27	=27
2D#/	2a#/	4gg#\	4ccc##\	V
.	.	4ff##'\	24ddd#\LL	.
.	.	.	24eee#\	.
.	.	.	24ccc##\	.
.	.	.	24ddd#\	.
.	.	.	24eee#\	.
.	.	.	24ccc##\JJ	.
4r	4r	4r	24ddd#\LL	.
.	.	.	24eee#\	.
.	.	.	24ccc##\	.
.	.	.	24ddd#\	.
.	.	.	24eee#\	.
.	.	.	24ccc##\JJ	.
=28	=28	=28	=28	=28
2.r	2.r	2.r	4.ddd#\	.
.	.	.	8ddd#\	.
.	.	.	8fff##\L	.
.	.	.	8aaa#\J	.
=29	=29	=29	=29	=29
!!pagebreak:original
4r	4r	4r	[4cccc#\	V65
2f##\	2dd#/	2aa#\	16cccc#\LL]	.
.	.	.	16bbb#\	.
.	.	.	16aaa#\	.
.	.	.	16ggg#\JJ	.
.	.	.	16fff##\LL	.
.	.	.	16eee#\	.
.	.	.	16ddd#\	.
.	.	.	16ccc#\JJ	.
=30	=30	=30	=30	=30
16r	2.dd#/	2.gg#\	2.bb#\	I
16f##\LL	.	.	.	.
16g#\	.	.	.	.
16d#\JJ	.	.	.	.
16c#\LL	.	.	.	.
16B#\	.	.	.	.
16A#\	.	.	.	.
16G#\JJ	.	.	.	.
16F##\LL	.	.	.	.
16G#\	.	.	.	.
16A#\	.	.	.	.
16G#\JJ	.	.	.	.
=31	=31	=31	=31	=31
16r	2ee#\	2.bb#\	2.ggg#\	vi
16d##\LL	.	.	.	.
16e#\	.	.	.	.
16B#\JJ	.	.	.	.
16A#/LL	.	.	.	.
16G#/	.	.	.	.
16F##/	.	.	.	.
16E#/JJ	.	.	.	.
16D##/LL	4ee#\	.	.	.
16E#/	.	.	.	.
16F##/	.	.	.	.
16E#/JJ	.	.	.	.
=32	=32	=32	=32	=32
!!linebreak:original
16r	2cc#/	2.ccc#\	2.eee#\	IV
16c#\LL	.	.	.	.
16d#\	.	.	.	.
16e#\JJ	.	.	.	.
*clefG2	*	*	*	*
16f##/LL	.	.	.	.
16g#/	.	.	.	.
16a#/	.	.	.	.
16b#/JJ	.	.	.	.
16cc#/LL	4aa#\	.	.	.
16b#/	.	.	.	.
16a#/	.	.	.	.
16g#/JJ	.	.	.	.
=33	=33	=33	=33	=33
*clefF4	*	*	*	*
2f##\	16aa#\LL	16ccc#\LL	[2ddd#\	V65
.	16gg#\	16bb#\	.	.
.	16ff##\	16aa#\	.	.
.	16ee#\JJ	16gg#\JJ	.	.
.	16dd#/LL	16ff##/LL	.	.
.	16cc#/	16ee#/	.	.
.	16b#/	16dd#/	.	.
.	16a#/JJ	16cc#/JJ	.	.
4g#\	8g#/L	8b#\L	16ddd#\LL]	I
.	.	.	16fff##\	.
.	8gg#/J	8bb#\J	16ggg#\	.
.	.	.	16eee#\JJ	.
=34	=34	=34	=34	=34
!!linebreak:original
2f##\	16aa#\LL	16ccc#\LL	[2ddd#\	V65
.	16gg#\	16bb#\	.	.
.	16ff##\	16aa#\	.	.
.	16ee#\JJ	16gg#\JJ	.	.
.	16dd#/LL	16ff##/LL	.	.
.	16cc#/	16ee#/	.	.
.	16b#/	16dd#/	.	.
.	16a#/JJ	16cc#/JJ	.	.
4g#\	8g#/L	8b#\L	24ddd#\LL]	I
.	.	.	24eee#\	.
.	.	.	24fff##\	.
.	8gg#/J	8bb#\J	24ggg#\	.
.	.	.	24fff##\	.
.	.	.	24eee#\JJ	.
=35	=35	=35	=35	=35
*clefG2	*	*	*	*
16f##/LL	2aa#\	2ccc#\	[2ddd#\	V65
16g#/	.	.	.	.
16a#/	.	.	.	.
16b#/JJ	.	.	.	.
16cc#/LL	.	.	.	.
16dd#/	.	.	.	.
16ee#/	.	.	.	.
16ff##/JJ	.	.	.	.
8gg#\L	8gg#/L	8bb#\L	16ddd#\LL]	I
.	.	.	16gg#\	.
8gg#\J	8b#/J	8gg#\J	16ggg#\	.
.	.	.	16ddd#\JJ	.
=36	=36	=36	=36	=36
!!pagebreak:original
[2.gg#\	4cc#/	4cc#/	16eee#\LL	IV
.	.	.	16gg#\	.
.	.	.	16ggg#\	.
.	.	.	16eee#\JJ	.
.	4b#/	4r	16ddd#\LL	I6
.	.	.	16bb#\	.
.	.	.	16aa#\	.
.	.	.	16gg#\JJ	.
.	8r	4r	16ff##\LL	.
.	.	.	16gg#\	.
.	8b#/	.	16ggg#\	.
.	.	.	16ddd#\JJ	.
=37	=37	=37	=37	=37
2gg#\]	4cc#/	4r	16eee#\LL	IV
.	.	.	16gg#\	.
.	.	.	16ggg#\	.
.	.	.	16eee#\JJ	.
.	4b#/	4r	16ddd#\LL	I6
.	.	.	16bb#\	.
.	.	.	16aa#\	.
.	.	.	16gg#\JJ	.
8r	8r	8r	16ff##\LL	.
.	.	.	16gg#\	.
*clefF4	*	*	*	*
8B#\	8b#/	8b#/	16ddd#\	.
.	.	.	16dd#\JJ	.
=38	=38	=38	=38	=38
!!linebreak:original
4c#\	4cc#/	4cc#/	16dd##\LL	IV
.	.	.	16ee#\	.
.	.	.	16ff#\	.
.	.	.	16ff##\JJ	.
4r	4r	4r	16gg#\LL	.
.	.	.	16aa#\	.
.	.	.	16bb\	.
.	.	.	16bb#\JJ	.
4r	4r	4r	16ccc#\LL	.
.	.	.	16ccc##\	.
.	.	.	16ddd#\	.
.	.	.	16ddd##\JJ	.
=39	=39	=39	=39	=39
2.r	2.r	2.r	4eee#\	.
.	.	.	4r	.
.	.	.	8.c#/L 8.ee#/	.
.	.	.	16c#/Jk 16ee#/	.
=40	=40	=40	=40	=40
4r	4r	4r	4c#/ 4ee#/	.
4r	4r	4r	4r	.
*	*clefF4	*	*	*
4D#/	4c#\	8.f##/L	24c#/LL	V7
.	.	.	24f##/	.
.	.	.	24a#/	.
.	.	.	24cc#/	.
.	.	.	24a#/	.
.	.	16a#/Jk	.	.
.	.	.	24f##/JJ	.
=41	=41	=41	=41	=41
!!linebreak:original
4G#\	4B#\	4g#/	16g#/LL	I
.	.	.	16g#/	.
.	.	.	16g#/	.
.	.	.	16g#/JJ	.
4r	4r	4r	16b#/LL	.
.	.	.	16g#/	.
.	.	.	16g#/	.
.	.	.	16g#/JJ	.
4D#/	4c#\	8.f##/L	24c#/LL	V7
.	.	.	24f##/	.
.	.	.	24a#/	.
.	.	.	24cc#/	.
.	.	.	24a#/	.
.	.	16a#/Jk	.	.
.	.	.	24f##/JJ	.
=42	=42	=42	=42	=42
4G#\	4B#\	4g#/	16g#/LL	I
.	.	.	16g#/	.
.	.	.	16g#/	.
.	.	.	16g#/JJ	.
4r	4r	4r	16b#/LL	.
.	.	.	16g#/	.
.	.	.	16g#/	.
.	.	.	16g#/JJ	.
4D#/	4c#\	8.f##/L	24c#/LL	V7
.	.	.	24f##/	.
.	.	.	24a#/	.
.	.	.	24cc#/	.
.	.	.	24a#/	.
.	.	16a#/Jk	.	.
.	.	.	24f##/JJ	.
=43	=43	=43	=43	=43
2GG#/	4c#\	4a#/	4f##/	I
.	4B#\	4g#/	4g#/	.
4r	4r	4r	4r	.
*-	*-	*-	*-	*-
